X:22
T:The Man of the House
R:reel
B:O'Neills Collection
D:Tony Linnane & Noel Hill
S:Clare FM
Z:psc -  http://www.cranfordpub.com
L:1/8
Q:333
M:C|
K:Edor
E2 BE GABG|E2 BG FDAF|E2 BE GABc|[1dBcA BEED:|[2dBcA BEE||
||z|efge fgaf|gfed ed (3(Bcd)|efge fgaf|gfed Beed|
efge fgaf|gfed ed (3(Bcd)|bgaf gefd|e2 BA GEFD|]
